src/assets/icons/fi_box_grey.svg

<svg fill="none" height="24" viewBox="0 0 24 24" width="24" xmlns="http://www.w3.org/2000/svg"><g stroke="#8a8a8a" stroke-linecap="round" stroke-linejoin="round" stroke-width="2"><path d="m21 15.9999v-8c-.0004-.35072-.0929-.69519-.2685-.99884-.1755-.30364-.4278-.5558-.7315-.73116l-7-4c-.304-.17553-.6489-.26795-1-.26795s-.696.09242-1 .26795l-7 4c-.30374.17536-.55602.42752-.73154.73116-.17552.30365-.2681.64812-.26846.99884v8c.00036.3507.09294.6952.26846.9988.17552.3037.4278.5558.73154.7312l7 4c.304.1755.6489.268 1 .268s.696-.0925 1-.268l7-4c.3037-.1754.556-.4275.7315-.7312.1756-.3036.2681-.6481.2685-.9988z"/><path d="m3.26953 6.95996 8.72997 5.05004 8.73-5.05004"/><path d="m12 22.08v-10.08"/></g></svg>

<svg width="24" height="24" viewBox="0 0 24 24" fill="none" xmlns="http://www.w3.org/2000/svg">
<path d="M21 15.9999V7.9999C20.9996 7.64918 20.9071 7.30471 20.7315 7.00106C20.556 6.69742 20.3037 6.44526 20 6.2699L13 2.2699C12.696 2.09437 12.3511 2.00195 12 2.00195C11.6489 2.00195 11.304 2.09437 11 2.2699L4 6.2699C3.69626 6.44526 3.44398 6.69742 3.26846 7.00106C3.09294 7.30471 3.00036 7.64918 3 7.9999V15.9999C3.00036 16.3506 3.09294 16.6951 3.26846 16.9987C3.44398 17.3024 3.69626 17.5545 4 17.7299L11 21.7299C11.304 21.9054 11.6489 21.9979 12 21.9979C12.3511 21.9979 12.696 21.9054 13 21.7299L20 17.7299C20.3037 17.5545 20.556 17.3024 20.7315 16.9987C20.9071 16.6951 20.9996 16.3506 21 15.9999Z" stroke="#8A8A8A" stroke-width="2" stroke-linecap="round" stroke-linejoin="round"/>
<path d="M3.26953 6.95996L11.9995 12.01L20.7295 6.95996" stroke="#8A8A8A" stroke-width="2" stroke-linecap="round" stroke-linejoin="round"/>
<path d="M12 22.08V12" stroke="#8A8A8A" stroke-width="2" stroke-linecap="round" stroke-linejoin="round"/>
</svg>
